!!!!SEGMENT: Fsc2001-Quis_dabit_oculis.krn
!!!id: Fsc2001
!!!AGN: Motet
!!!SCT: Seay (1979)
!!!voices: 4
!!!COM: Costanzo Festa
!!!OTL: Quis dabit oculis
**kern	**kern	**kern	**kern
*part4	*part3	*part2	*part1
*staff4	*staff3	*staff2	*staff1
*I"Bassus	*I"Tenor	*I"Altus	*I"Superius
*I'B	*I'T	*I'A	*I'S
*clefF4	*clefGv2	*clefGv2	*clefG2
*k[]	*k[]	*k[]	*k[]
*C:	*C:	*C:	*C:
*M2/1	*M2/1	*M2/1	*M2/1
*met(C|)	*met(C|)	*met(C|)	*met(C|)
!!section: Prima pars: Quis dabit oculis
!!!OMD: Prima pars: Quis dabit oculis
=1	=1	=1	=1
0E	0r	0r	0r
=2	=2	=2	=2
1E	0r	0r	0r
1E	.	.	.
=3	=3	=3	=3
1.F	0A	0r	0r
2D	.	.	.
=4	=4	=4	=4
1D	1A	0r	0r
1F	1A	.	.
=5	=5	=5	=5
1E	1.B	0r	0r
2r	.	.	.
2E	2G	.	.
=6	=6	=6	=6
2E	1G	0r	0r
2E	.	.	.
2D	1B	.	.
2E	.	.	.
=7	=7	=7	=7
0AA	1A	0e	0r
.	2r	.	.
.	2A	.	.
=8	=8	=8	=8
0r	2A	1e	0r
.	2A	.	.
.	2G	1e	.
.	2A	.	.
=9	=9	=9	=9
0r	[0D	1.f	0a
.	.	2d	.
=10	=10	=10	=10
0r	0D]	1d	1a
.	.	1f	1a
=11	=11	=11	=11
1r	0r	1.e	1.b
[1E	.	.	.
.	.	2e	2g
=12	=12	=12	=12
1E]	0r	2e	1g
.	.	2e	.
1G	.	2d	1b
.	.	2e	.
=13	=13	=13	=13
1.F	1r	2.A	1a
.	.	4B	.
.	[1A	2.c	2r
4E	.	.	2a
4D	.	4d	.
=14	=14	=14	=14
2C	1A]	1e	2a
2D	.	.	2a
2E	1c	1r	2g
2F	.	.	2a
=15	=15	=15	=15
0G	1B	0r	0d
.	1B	.	.
=16	=16	=16	=16
1r	0A	[0e	0a
[1A	.	.	.
=17	=17	=17	=17
1A]	1r	0e]	1a
1c	[1E	.	[1g
=18	=18	=18	=18
1B	1E]	1e	1g]
1B	1G	[1d	1g
=19	=19	=19	=19
1A	1F	2d]	0a
.	.	2c	.
[1AA	1F	1c	.
=20	=20	=20	=20
1AA]	2.E	1.A	2r
.	.	.	1e
.	4D	.	.
1C	4E	.	.
.	4F	.	.
.	[2E	4G	2e
.	.	4F	.
=21	=21	=21	=21
1BB	2E]	2G	2g
.	4D	1A	4f
.	4C	.	4e
1BB	1D	.	2d
.	.	2G	2d
=22	=22	=22	=22
1AA	1E	1A	1c
1C	2r	2r	1e
.	2E	2G	.
=23	=23	=23	=23
1C	2G	1c	1e
.	2A	.	.
1D	1F	1A	1f
=24	=24	=24	=24
1GG	0G	1B	1d
1C	.	1c	1e
=25	=25	=25	=25
1AA	1c	1.e	1a
2E	2B	.	2g
2F	[2A	2d	[2f
=26	=26	=26	=26
1AA	2A]	2c	4f]
.	.	.	4e
.	2G	2B	1e
1D	1F	1A	.
.	.	.	2d
=27	=27	=27	=27
1.G	[0E	1B	[0e
.	.	1r	.
4F	.	.	.
4E	.	.	.
=28	=28	=28	=28
1E	0E]	1B	0e]
1r	.	[1B	.
=29	=29	=29	=29
1E	0r	2B]	0r
.	.	2G	.
[1E	.	1G	.
=30	=30	=30	=30
2E]	0r	1B	1e
2E	.	.	.
1C	.	1c	[1e
=31	=31	=31	=31
1E	0r	2B	2e]
.	.	2G	2e
1F	.	1A	1c
=32	=32	=32	=32
2E	0r	2G	1e
2C	.	2.A	.
1D	.	.	1f
.	.	4G	.
.	.	4A	.
.	.	4B	.
=33	=33	=33	=33
1C	0G	1c	1e
[1E	.	1B	[1g
=34	=34	=34	=34
2E]	1G	1B	2g]
2E	.	.	2g
1C	1G	[1e	1cc
=35	=35	=35	=35
1E	1G	1e]	1b
1F	1A	2c	1a
.	.	2d	.
=36	=36	=36	=36
0E	0B	0e	0g
=37	=37	=37	=37
1r	1r	1r	1r
[1C	[1c	[1e	[1g
=38	=38	=38	=38
2C]	2c]	2e]	2g]
2C	2c	2e	2g
1C	1c	[1e	[1g
=39	=39	=39	=39
1.C	1G	1e]	1g]
.	2A	1e	1r
2D	2B	.	.
=40	=40	=40	=40
2E	2G	1c	0r
2F	1c	.	.
1D	.	1d	.
.	2B	.	.
=41	=41	=41	=41
2C	1.c	2.e	2r
1AA	.	.	1a
.	.	4d	.
.	.	2c	.
2BB	2d	2B	2g
=42	=42	=42	=42
2C	2e	2A	1a
2D	2f	2F	.
1BB	1d	1G	1b
=43	=43	=43	=43
1AA	2c	4A	1.cc
.	.	4B	.
.	1A	4c	.
.	.	4d	.
2A	.	1e	.
2G	2B	.	2b
=44	=44	=44	=44
2F	2c	1f	1a
2D	2d	.	.
1E	1B	1e	1g
=45	=45	=45	=45
1F	1A	1c	1a
1r	1r	1r	1r
=46	=46	=46	=46
1F	1A	1f	1a
1F	1c	1f	1a
=47	=47	=47	=47
1G	1B	1e	1g
1D	1A	1d	1f
=48	=48	=48	=48
1.F	1.A	1.c	1.f
2C	2G	2c	2g
=49	=49	=49	=49
0C	0G	0c	0e
=50	=50	=50	=50
1F	1A	1f	1a
1F	1c	1f	1a
=51	=51	=51	=51
1G	1B	1e	1g
1D	1A	1d	1f
=52	=52	=52	=52
1.F	1.A	1.c	1.f
2C	2G	2c	2g
=	=	=	=
00C	00G	00c	00e
=||	=||	=||	=||
*M2/1	*M2/1	*M2/1	*M2/1
*met(C|)	*met(C|)	*met(C|)	*met(C|)
!!section: Secunda pars: Heu nobis Domine
!!!OMD: Secunda pars: Heu nobis Domine
0r	0B	0r	0r
=53	=53	=53	=53
0r	1c	0r	0r
.	1A	.	.
=54	=54	=54	=54
0E	1B	0r	0r
.	1G	.	.
=55	=55	=55	=55
1F	0A	0r	0r
1D	.	.	.
=56	=56	=56	=56
1E	1.G	0e	0r
1C	.	.	.
.	[2A	.	.
=57	=57	=57	=57
0D	4A]	1f	0r
.	4G	.	.
.	4F	.	.
.	4E	.	.
.	1F	1d	.
=58	=58	=58	=58
0C	[0G	1e	0r
.	.	1c	.
=59	=59	=59	=59
0r	0G]	0d	0b
=60	=60	=60	=60
1F	0r	1c	1cc
2F	.	2r	1a
2F	.	2d	.
=61	=61	=61	=61
1G	1r	2d	1b
.	.	2d	.
1E	2r	1e	1g
.	2c	.	.
=62	=62	=62	=62
2r	2c	2A	1a
2F	2c	2f	.
2F	1d	2f	2r
2F	.	2f	2a
=63	=63	=63	=63
1G	[0B	1d	2b
.	.	.	2b
1E	.	1e	1g
=64	=64	=64	=64
2r	0B]	0r	1g
2.E	.	.	.
.	.	.	1g
4E	.	.	.
2E	.	.	.
=65	=65	=65	=65
2D	2r	0r	0r
2C	2.A	.	.
1D	.	.	.
.	4A	.	.
.	2A	.	.
=66	=66	=66	=66
0E	2G	2r	0r
.	2c	2.e	.
.	1B	.	.
.	.	4e	.
.	.	2e	.
=67	=67	=67	=67
1F	0A	2d	2r
.	.	2c	2.a
1D	.	1f	.
.	.	.	4a
.	.	.	2a
=68	=68	=68	=68
2E	2r	1e	2g
1AA	2.A	.	2.cc
.	.	[1e	.
.	4A	.	4b
2AA	2A	.	4cc
.	.	.	4a
=69	=69	=69	=69
2E	2G	2e]	2b
2F	2.c	2A	1a
1E	.	1e	.
.	8BL	.	.
.	8AJ	.	.
.	2B	.	2g#i
=70	=70	=70	=70
1AA	0A	2r	1a
.	.	2c	.
2r	.	[1c	1e
2AA	.	.	.
=71	=71	=71	=71
1.C	1E	2c]	1.e
.	.	2c	.
.	[1G	[1c	.
2C	.	.	2e
=72	=72	=72	=72
1C	2G]	1c]	1e
.	2G	.	.
1C	2G	1c	1g
.	2E	.	.
=73	=73	=73	=73
1D	1F	2A	1f
.	.	2B	.
1C	2G	1c	1e
.	[2A	.	.
=74	=74	=74	=74
1D	2A]	2A	1d
.	2D	2.B	.
1AA	2E	.	1c
.	.	4A	.
.	[2F	[2A	.
=75	=75	=75	=75
0BB	4F]	2A]	0d
.	4E	.	.
.	4D	4G#i	.
.	4C	4F#i	.
.	1D	1G#i	.
=	=	=	=
*M3/1	*M3/1	*M3/1	*M3/1
*met(3)	*met(3)	*met(3)	*met(3)
0AA	0E	0A	0c
1r	1r	1r	1r
=76	=76	=76	=76
0AA	0c	0e	0a
1AA	1c	1e	1a
=77	=77	=77	=77
1E	1B	1e	1g
1F	1A	1d	1a
1F	1A	1c	1f
=78	=78	=78	=78
0C	0G	0c	0e
1r	1r	1r	1r
=79	=79	=79	=79
0AA	0A	0e	0cc
1AA	1A	1e	1cc
=80	=80	=80	=80
1E	1G	1e	1b
0F	0A	1c	0a
.	.	1d	.
=	=	=	=
00E	00B	00e	00g
=||	=||	=||	=||
*M2/1	*M2/1	*M2/1	*M2/1
*met(C|)	*met(C|)	*met(C|)	*met(C|)
!!section: Tertia pars: Ergo ululate
!!!OMD: Tertia pars: Ergo ululate
0r	0r	0r	0e
=81	=81	=81	=81
0r	0r	1r	1g
.	.	[1A	1a
=82	=82	=82	=82
0r	0r	1A]	2a
.	.	.	1a
.	.	1c	.
.	.	.	2g
=83	=83	=83	=83
0r	0r	1d	1.b
.	.	2d	.
.	.	[2d	2a
=84	=84	=84	=84
0r	1r	2d]	1a
.	.	2c	.
.	[1E	[1e	2.g
.	.	.	4a
=85	=85	=85	=85
0r	1E]	2e]	2b
.	.	2e	2.cc
.	1G	1d	.
.	.	.	8bL
.	.	.	8aJ
.	.	.	2b
=86	=86	=86	=86
0AA	1.A	2.c	1e
.	.	4d	.
.	.	2e	1r
.	2A	[2f	.
=87	=87	=87	=87
1C	1A	4f]	0r
.	.	8eL	.
.	.	8dJ	.
.	.	2e	.
1D	2G	1d	.
.	[2B	.	.
=88	=88	=88	=88
2D	2B]	0r	1r
1D	2A	.	.
.	1A	.	[1e
2C	.	.	.
=89	=89	=89	=89
1.E	0G	0r	1e]
.	.	.	1g
2E	.	.	.
=90	=90	=90	=90
0D	0r	0A	1a
.	.	.	1a
=91	=91	=91	=91
0r	0r	1c	2g
.	.	.	2.a
.	.	1d	.
.	.	.	4g
.	.	.	4f
.	.	.	4e
=92	=92	=92	=92
0r	1r	1d	1f
.	[1E	2c	2e
.	.	[2e	[2g
=93	=93	=93	=93
0r	1E]	2e]	2g]
.	.	4d	4f
.	.	4c	4e
.	1G	1B	1d
=94	=94	=94	=94
0AA	1A	1.e	0c
.	1A	.	.
.	.	2c	.
=95	=95	=95	=95
1C	2G	1.c	1r
.	2.A	.	.
1D	.	.	[1a
.	4G	.	.
.	4F	2A	.
.	4E	.	.
=96	=96	=96	=96
1D	1F	0A	1a]
2C	2E	.	1a
[2D	[2F	.	.
=97	=97	=97	=97
4D]	4F]	1.F	0dd
4C	4E	.	.
4BB	4D	.	.
4AA	4C	.	.
1BB	1D	.	.
.	.	2G	.
=98	=98	=98	=98
2AA	1A	2E	1cc
2A	.	2F	.
2G	2B	2G	2b
[2A	[2c	2F	2a
=99	=99	=99	=99
4A]	2c]	1.c	1.a
4G	.	.	.
4F	2A	.	.
4E	.	.	.
1F	1A	.	.
.	.	2d	4g
.	.	.	4f
=100	=100	=100	=100
0E	1B	0e	[0g
.	1r	.	.
=101	=101	=101	=101
1r	1r	0r	0g]
1E	1G	.	.
=102	=102	=102	=102
2E	2G	0r	0r
2E	2G	.	.
1C	1A	.	.
=103	=103	=103	=103
1D	1B	1r	1r
[1E	1B	1e	1g
=104	=104	=104	=104
1E]	0r	2e	2g
.	.	2e	2g
1r	.	1c	1a
=105	=105	=105	=105
1r	1G	1d	1b
1E	[1G	1e	1b
=106	=106	=106	=106
1E	2G]	0r	0r
.	2G	.	.
2C	1A	.	.
2C	.	.	.
=107	=107	=107	=107
1D	1B	1r	1r
[1E	1B	1e	1g
=108	=108	=108	=108
1E]	0r	1.e	1.g
2r	.	.	.
2E	.	2e	2g
=109	=109	=109	=109
1A	0r	1c	1a
1G	.	1d	1b
=110	=110	=110	=110
1E	1r	1e	1b
1F	1A	2r	1r
.	.	2c	.
=111	=111	=111	=111
1D	1d	2B	1r
.	.	2A	.
1E	1c	2G	1e
.	.	2G	.
=112	=112	=112	=112
2F	1A	1c	1a
2F	.	.	.
[1E	1B	1G	1g
=113	=113	=113	=113
1E]	1G	2r	1e
.	.	2c	.
[1D	[1A	2.F	1f
.	.	4G	.
=114	=114	=114	=114
1D]	2A]	2A	1d
.	2F	2B	.
2C	2G	[1c	1e
2AA	[2A	.	.
=115	=115	=115	=115
0D	4A]	2c]	1f
.	4G	.	.
.	4F	4B	.
.	4E	4A	.
.	1F	2B	1f
.	.	2A	.
=116	=116	=116	=116
1C	1G	1c	1e
1r	1r	1r	1r
=117	=117	=117	=117
0AA	0A	0c	0e
=118	=118	=118	=118
0C	0G	0c	0e
=119	=119	=119	=119
0C	0c	0e	0g
=120	=120	=120	=120
0E;	0B;	0e;	0g;
=121	=121	=121	=121
0r	1r	0r	1.g
.	[1G	.	.
.	.	.	2g
=122	=122	=122	=122
1.C	2G]	1r	2g
.	2G	.	2g
.	2G	[1c	[1g
2C	2G	.	.
=123	=123	=123	=123
2C	1G	2c]	1g]
2C	.	2c	.
[1C	1G	2c	1e
.	.	2c	.
=124	=124	=124	=124
1C]	1E	0c	[0el
1AA	[1El	.	.
=125	=125	=125	=125
[0AAl	0E_	1A	0e_
.	.	[1Al	.
=126	=126	=126	=126
00AA]	00E]	00A]	00e]
==	==	==	==
*-	*-	*-	*-
!!!system-decoration: [*]
!!!RDF**kern: i = editorial accidental
!!!RDF**kern: l = terminal long
!!!ENC: Benjamin Ory
!!!END: 2022/2/15
!!!EED: Benjamin Ory
!!!EEV: 2022/02/15
!!!YEC: Copyright 2022 Benjamin Ory, All Rights Reserved
!!!ONB: Translated from MusicXML on 2022/02/15
